X: 4914
T: Branohm
R: reel
M: 4/4
K: Adorian
eA ~A2 cdec|degd BAGB|AE ~E2 ABcd|egfa geag|
eA A/A/A cdec|degd BAGB|AE E/E/E cdec|d2 gd BA:|
e^def g2 af|gedc Bcdg|eaa^g ~a3 b|aged B/c/d ef|
geaf g2 ef|gedc BAGB|AE ~E2 cdec|d2 gd BA:|
[2 AE E/E/E cde^c|d/e/d gd BAAd||

